X:17
T:Bedfordshire March,The.3voices. JClw.17
M:4/4
L:1/8
Q:1/4=110
S:J.Clews MS,Stoke-upon-Tern,Shrops.1832
N:A glorious arrangement in 3 parts.
A:N. Shropshire
Z:Neil Brookes 2006
K:G
[V:1]d2d>dd2 c2|B2B>BB2A2|G3A/B/ A3B/c/|B2B>BB2 A>B|!
[V:2]z8|d2d>dd2 c2|B2G4TF2|G2G>GG2 FG|\
[V:3 clef=bass]z2G,,2B,,2D,2|G,2G,,2B,,2D,2|E,3C,D,2D,,2|G,,2G,,>G,,G,2z2|\
[V:1]c2B2d2cB|c3d/e/ d2c2|(3BAB (3cBA G2A2|G2G>GG4||!
[V:2]A2G2B2D2|E2E2F2A2|D2G4F2|[B2G2][B3/2G3/2][B/G/][B4G4]||\
[V:3]z4G,,2G,2|E,2A,2D,2F,2|G,2C,2D,2D,,2|G,,2G,,>G,,G,4||\
%
[V:1]d2A>AA2B2|A>G A>B A2B2|c2B2A2G2|A2A>AA2 Bc|!
[V:2]F2F2D2G2|F2D2z4|A2B2c2B2|A2F>FF2dc|\
[V:3]z2D,2D,2G,,2|D,2D,2D,2G,2|D,2G,2D,2G,,2|D,2D,2D,2B,A,|\
%
[V:1]d2Bcd2ec|d2Bcd2ec|d>Bc>A (3BAG (3dcB|B2A>AA2D2|!
[V:2]B2GAB2cA|B2GAB2cA|B2D2G2(3BAG|G2F2z4|\
[V:3]G,2G,,2z4|G,2G,,2z4|G,2F,2G,2G,,2|B,2D,2D,>C,B,>A,|\
%
[V:1]G2(3GAB A2(3ABc|B2(3Bcd c2(3cde|(3dgf (3gec B2A2|G2G>GG4|]
[V:2]z4z2(3FGA|G2(3GAB A2(3ABc|(3Bcd (3ecA G2F2|\
[B2G2][B3/2G3/2][B/2G/2][B4G4]|]
[V:3]G,,4z4|z4D,2F,2|G,2G,,2D,2D,,2|G,,2G,,>G,,G,,4|]

